X:18
T:B018-  Aye, marry, and thank you too
S:via BBBM, from 'Silvia', 1731
Q:1/4=120
L:1/4
M:6/4
K:Gm
D|\
GABcBG|(G3G2)c|dgfec2|(B3B2)c|\
dgfe2d|cBA^F3|B3Ged|(cB)AG2|]

